assets/Rightwards hand/Medium-Light/Flat/rightwards_hand_flat_medium-light.svg

<svg width="32" height="32" viewBox="0 0 32 32" fill="none" xmlns="http://www.w3.org/2000/svg">
<path d="M24.7344 25.1561C24.7344 23.8749 23.875 23.2108 23.875 23.2108H25.7969C26.8351 23.2108 27.7656 22.21 27.7656 21.1718C27.7656 19.2186 26.6094 18.8905 26.6094 18.8905C26.6094 18.8905 27.5156 18.8749 28.2969 18.7343C29.0781 18.5936 30.0312 17.6006 30.0312 16.5624C30.0312 14.6191 28.4922 13.8827 26.8125 14.0077C26.8125 14.0077 27.875 13.3593 27.875 11.953C27.875 10.9148 26.8906 9.46082 24.9766 9.63269L17.4219 9.99207C17.4219 9.99207 18.9886 8.95533 19.5 8.07792C20.0114 7.2005 19.9885 5.88774 19.2188 5.17172C18.3139 4.32991 16.8958 4.17691 16.0312 4.78102C13.4375 6.59351 10.0489 9.1661 8.46875 9.65607C4.4375 10.9061 2.0179 14.5624 2.0179 17.9686C2.0179 22.078 5.11587 26.3918 9.89062 26.7343L22.0156 27.4452C23.0625 27.5233 24.7344 26.7108 24.7344 25.1561Z" fill="#EEBFAA"/>
<path fill-rule="evenodd" clip-rule="evenodd" d="M19.7731 6.14247C19.7022 6.61779 19.4899 7.12509 19 7.50001C17.9468 8.30611 15 10 15 10L17.4693 9.95991C17.735 9.77896 19.0415 8.86435 19.5 8.07777C19.8249 7.52019 19.9342 6.78681 19.7731 6.14247ZM24.198 26.5323C23.372 26.494 22.5668 26.458 21.7766 26.4226L21.7746 26.4225C17.41 26.2272 13.5059 26.0526 9.10882 25.6221C4.9254 25.2125 2.78722 20.3795 2.02008 18.1582C2.11358 22.2096 5.1893 26.3969 9.89061 26.7341L22.0156 27.445C22.6881 27.4952 23.6185 27.1779 24.198 26.5323ZM20.4899 17.9999L29.5894 17.8164C29.2408 18.2991 28.7411 18.6546 28.2969 18.7346C27.9048 18.8052 27.4813 18.8442 27.1566 18.8657L20.5101 18.9997C20.234 19.0053 20.0057 18.786 20.0001 18.5099C19.9945 18.2338 20.2138 18.0055 20.4899 17.9999ZM27.6533 13H19.5C19.2239 13 19 13.2239 19 13.5C19 13.7761 19.2239 14 19.5 14H26.8245C26.9049 13.9474 27.3696 13.6237 27.6533 13ZM27.3991 14H26.9369C27.0929 13.9923 27.2473 13.9922 27.3991 14ZM27.0389 21.9796C27.3039 21.9215 27.5028 21.8625 27.6515 21.8083C27.3725 22.5843 26.6184 23.211 25.7969 23.211H25.0738L18.4908 23.0895C18.2147 23.0844 17.995 22.8564 18.0001 22.5803C18.0052 22.3042 18.2331 22.0846 18.5092 22.0897C18.5092 22.0897 25.1698 22.3898 27.0389 21.9796Z" fill="#D6A089"/>
</svg>

<svg xmlns="http://www.w3.org/2000/svg" width="32" height="32" fill="none"><path fill="#EEBFAA" d="M24.734 25.156c0-1.281-.859-1.945-.859-1.945h1.922c1.038 0 1.969-1.001 1.969-2.04 0-1.952-1.157-2.28-1.157-2.28s.907-.016 1.688-.157c.781-.14 1.734-1.133 1.734-2.172 0-1.943-1.539-2.68-3.218-2.554 0 0 1.062-.649 1.062-2.055 0-1.038-.984-2.492-2.898-2.32l-7.555.36s1.567-1.038 2.078-1.915c.511-.877.488-2.19-.281-2.906-.905-.842-2.323-.995-3.188-.391-2.593 1.813-5.982 4.385-7.562 4.875-4.031 1.25-6.451 4.906-6.451 8.313 0 4.109 3.098 8.423 7.873 8.765l12.125.711c1.047.078 2.718-.734 2.718-2.289Z"/><path fill="#D6A089" fill-rule="evenodd" d="M19.773 6.142c-.07.476-.283.983-.773 1.358-1.053.806-4 2.5-4 2.5l2.47-.04c.265-.181 1.572-1.096 2.03-1.882a2.673 2.673 0 0 0 .273-1.936Zm4.425 20.39-2.421-.11h-.002c-4.365-.195-8.27-.37-12.666-.8-4.184-.41-6.322-5.242-7.089-7.464.094 4.052 3.17 8.239 7.87 8.576l12.126.711c.672.05 1.603-.267 2.182-.913ZM20.49 18l9.1-.184c-.35.483-.849.839-1.293.919-.392.07-.816.11-1.14.13L20.51 19a.5.5 0 1 1-.02-1Zm7.163-5H19.5a.5.5 0 0 0 0 1h7.325a2.46 2.46 0 0 0 .828-1Zm-.254 1h-.462c.156-.008.31-.008.462 0Zm-.36 7.98c.265-.058.464-.117.612-.172-.279.776-1.033 1.403-1.854 1.403h-.723l-6.583-.121a.5.5 0 0 1 .018-1s6.66.3 8.53-.11Z" clip-rule="evenodd"/></svg>
